X: 20082
M: 2/4
L: 1/8
K: G
d |\
gd cB | c< c c d | e A AA | A2 dd |\
g2 dB | cedc | BG GG | G2 z |]
g2 dB | ce dc | BG GG | G2 z |]


